X:1
T:Title
L:1/8
Q:1/4=100
M:6/8
K:Eb
V:1 treble nm="Grand Piano"
V:1
 GGG G_G=G | B2 A G3 | GDE F2 E/D/ | C6 | GGG G_G=G | B2 A G3 | GDE F2 E/D/ | C6 | GGG G_G=G | %9
w: ????~????? * * * * *|||||||||
 c2 B B3 | B2 =A B2 c | A6 | A2 G A2 B | G6 | GF=E F2 A | d3 =B3 | =Bcd c2 B | c3- c2 e | %18
w: |||||||||
 d2 c B2 c | B2 A G3 | GDE FEF | G3- G2 e | d2 c B2 c | B2 A G3 | =BBc dcB | c6 |] %26
w: ||||||||

